Demo/Harbeth-SwiftUI-Demo/Resources/vista200 v1.CUBE
#Created by: Adobe Photoshop Export Color Lookup Plugin
TITLE "vista200 v1.psd"
#LUT size
LUT_3D_SIZE 5
#data domain
#LUT data points
DOMAIN_MIN 0.000000 0.000000 0.000000
DOMAIN_MAX 0.903226 0.903226 0.903226
0.072693 0.054779 0.049622
0.266296 0.042694 0.037567
0.495941 0.028473 0.023285
0.716461 0.014740 0.009552
0.858002 0.005951 0.000732
0.090302 0.212952 0.050995
0.275513 0.217499 0.078156
0.510254 0.193756 0.029602
0.716461 0.171082 0.009552
0.858002 0.162292 0.000732
0.118866 0.498627 0.050995
0.312988 0.491241 0.086975
0.511169 0.489502 0.121735
0.753479 0.513000 0.101196
0.922455 0.502686 0.046997
0.140259 0.712219 0.050995
0.343079 0.708435 0.070831
0.541382 0.693878 0.144043
0.739258 0.700012 0.156799
0.885681 0.722534 0.179291
0.158264 0.890991 0.050995
0.363678 0.889343 0.058044
0.577759 0.874329 0.131836
0.758789 0.866455 0.176331
0.885681 0.869476 0.179291
0.064148 0.058472 0.172760
0.277130 0.052338 0.187775
0.499390 0.031616 0.166382
0.716766 0.015015 0.149689
0.858337 0.006195 0.140808
0.076477 0.193970 0.165833
0.274902 0.207672 0.186035
0.504547 0.193329 0.171722
0.725067 0.179596 0.157990
0.866638 0.170929 0.149200
0.074097 0.496857 0.148712
0.310516 0.498016 0.195068
0.515259 0.493561 0.241028
0.764343 0.503845 0.197388
0.907043 0.484650 0.169556
0.074097 0.712219 0.127380
0.332550 0.712219 0.191254
0.548737 0.700226 0.252563
0.743347 0.704102 0.276093
0.893188 0.725403 0.284973
0.074097 0.890991 0.109406
0.350464 0.890991 0.191254
0.580353 0.880646 0.240356
0.762878 0.870544 0.295654
0.889771 0.873474 0.298615
0.063629 0.079071 0.431641
0.250580 0.060150 0.461609
0.525024 0.056152 0.491241
0.751099 0.045441 0.481659
0.888397 0.032471 0.468170
0.081268 0.228058 0.434082
0.255157 0.217743 0.453125
0.525024 0.212952 0.491272
0.745605 0.197784 0.476501
0.883484 0.184113 0.462952
0.081390 0.440460 0.404358
0.284119 0.468750 0.447113
0.522949 0.496613 0.489258
0.743469 0.482910 0.475525
0.885040 0.474060 0.466705
0.083099 0.642609 0.400421
0.284332 0.684357 0.442749
0.547119 0.712219 0.491241
0.752106 0.712860 0.531342
0.915649 0.714783 0.491302
0.081573 0.833954 0.396973
0.282684 0.875854 0.429962
0.565033 0.890991 0.491241
0.775085 0.881165 0.541931
0.898529 0.882294 0.553833
0.067780 0.100220 0.640350
0.218842 0.066803 0.652649
0.509186 0.057434 0.720673
0.759979 0.056152 0.733185
0.910797 0.056152 0.733032
0.085419 0.249268 0.642822
0.242310 0.221893 0.661865
0.499023 0.215881 0.710022
0.759979 0.212952 0.733124
0.910797 0.212952 0.733093
0.085419 0.490967 0.642822
0.288147 0.504700 0.671112
0.508453 0.502655 0.701019
0.759979 0.498627 0.733124
0.902954 0.490112 0.724945
0.085419 0.642822 0.614105
0.288147 0.671112 0.656891
0.528595 0.701630 0.704651
0.758362 0.710480 0.731445
0.898621 0.700592 0.721436
0.088135 0.779053 0.587952
0.290894 0.809662 0.632080
0.528992 0.859802 0.687439
0.775787 0.890991 0.733124
0.905609 0.889313 0.759644
0.070221 0.112671 0.763092
0.204010 0.070282 0.765472
0.478577 0.062256 0.832092
0.759979 0.056152 0.875366
0.910797 0.056152 0.875336
0.087860 0.261749 0.765564
0.234741 0.224335 0.784607
0.474640 0.220154 0.821991
0.760071 0.212952 0.875366
0.910797 0.212952 0.875366
0.087860 0.503326 0.765564
0.290588 0.517151 0.793854
0.505096 0.509308 0.823761
0.751282 0.499329 0.868561
0.910797 0.498627 0.875366
0.087860 0.683990 0.765564
0.290588 0.697784 0.793854
0.531036 0.714081 0.827362
0.744751 0.714752 0.854492
0.910797 0.712219 0.875366
0.088135 0.779053 0.708374
0.290863 0.807312 0.751068
0.531311 0.840851 0.801849
0.762238 0.873047 0.850586
0.910797 0.890411 0.874359
