Demo/Harbeth-SwiftUI-Demo/Resources/vista200 v1.CUBE
#Created by: Adobe Photoshop Export Color Lookup Plugin
TITLE "vista200 v1.psd"
#LUT size
LUT_3D_SIZE 8
#data domain
#LUT data points
DOMAIN_MIN 0.000000 0.000000 0.000000
DOMAIN_MAX 0.903226 0.903226 0.903226
0.072693 0.054779 0.049622
0.161957 0.049225 0.044067
0.301544 0.040497 0.035370
0.432678 0.032379 0.027222
0.560181 0.024445 0.019287
0.687531 0.016479 0.011353
0.790588 0.010132 0.004944
0.858002 0.005951 0.000732
0.080811 0.120392 0.052826
0.169189 0.122833 0.056000
0.302643 0.105530 0.035736
0.432678 0.096802 0.027222
0.560181 0.088867 0.019287
0.687531 0.081024 0.011353
0.790588 0.074585 0.004944
0.858002 0.070221 0.000732
0.094299 0.253082 0.050995
0.180969 0.248718 0.071747
0.310089 0.256805 0.090790
0.463867 0.252625 0.043854
0.582001 0.235107 0.029114
0.698029 0.219513 0.016296
0.791809 0.207550 0.006134
0.858002 0.202271 0.000732
0.111115 0.420807 0.050995
0.205048 0.418671 0.059631
0.326569 0.410553 0.103424
0.445709 0.415466 0.111664
0.584747 0.432373 0.106110
0.734344 0.427734 0.059875
0.844971 0.413910 0.032806
0.907471 0.404633 0.025024
0.126038 0.569366 0.050995
0.221100 0.569366 0.050995
0.355560 0.560822 0.092987
0.462402 0.554199 0.128326
0.577606 0.557800 0.131927
0.709320 0.578064 0.152191
0.828979 0.586334 0.119537
0.907593 0.585022 0.095551
0.137573 0.685364 0.050995
0.232666 0.685364 0.050995
0.373077 0.678223 0.084747
0.486450 0.670776 0.125671
0.591370 0.666809 0.145630
0.709320 0.673279 0.152191
0.815918 0.689789 0.168549
0.888428 0.700043 0.170013
0.148987 0.799774 0.050995
0.244232 0.799774 0.050995
0.388153 0.794067 0.076508
0.508026 0.786194 0.117950
0.610504 0.779053 0.157684
0.719910 0.777893 0.162720
0.815918 0.783661 0.168549
0.885681 0.794464 0.179291
0.158264 0.890991 0.050995
0.253204 0.890991 0.050995
0.399017 0.887756 0.068665
0.523071 0.878601 0.111328
0.630280 0.870209 0.152344
0.733521 0.866455 0.176331
0.823669 0.866455 0.176331
0.885681 0.869476 0.179291
0.069519 0.056854 0.101349
0.165436 0.052246 0.103180
0.301849 0.040833 0.091553
0.432983 0.032684 0.083405
0.560486 0.024750 0.075500
0.687836 0.016815 0.067596
0.790894 0.010376 0.061066
0.858337 0.006195 0.056946
0.074829 0.115082 0.099792
0.165405 0.117126 0.103394
0.304993 0.108398 0.094696
0.436096 0.100250 0.086517
0.563599 0.092316 0.078583
0.690948 0.084442 0.070648
0.794037 0.077972 0.064240
0.861450 0.073730 0.060028
0.074097 0.253082 0.089142
0.181793 0.251434 0.114929
0.313782 0.257385 0.130310
0.454559 0.245270 0.095856
0.571747 0.229126 0.082092
0.690948 0.216339 0.070648
0.794037 0.209808 0.064240
0.861450 0.205597 0.060028
0.075867 0.420807 0.074097
0.200562 0.420807 0.107025
0.329742 0.413086 0.146820
0.447357 0.417114 0.159332
0.588165 0.431030 0.145538
0.738861 0.421295 0.098083
0.835602 0.406738 0.084930
0.897858 0.397644 0.077301
0.090790 0.569366 0.074097
0.215485 0.569366 0.107025
0.355896 0.563354 0.136322
0.464050 0.555847 0.175995
0.579254 0.559448 0.179596
0.711945 0.579346 0.195709
0.832245 0.584198 0.158936
0.912292 0.581482 0.133575
0.102295 0.685364 0.074097
0.227051 0.685364 0.107025
0.371887 0.680969 0.127869
0.488678 0.672974 0.169403
0.592926 0.668457 0.193298
0.710968 0.675018 0.199829
0.817566 0.691315 0.216248
0.891083 0.700012 0.209900
0.113770 0.799774 0.074097
0.238617 0.799774 0.107025
0.385620 0.797089 0.119415
0.509003 0.788361 0.161743
0.613312 0.780487 0.202148
0.721436 0.779510 0.210388
0.817566 0.785400 0.216248
0.887299 0.796051 0.226929
0.122955 0.890991 0.074097
0.247711 0.890991 0.107025
0.395935 0.889465 0.112854
0.523102 0.880798 0.155121
0.632935 0.872864 0.195557
0.735046 0.868073 0.223999
0.825287 0.868073 0.223999
0.887299 0.871002 0.226929
0.062012 0.059143 0.206757
0.162720 0.056793 0.225281
0.316223 0.053619 0.228699
0.443390 0.041595 0.216309
0.567200 0.029633 0.204193
0.689789 0.018860 0.192810
0.790894 0.010376 0.184357
0.858337 0.006195 0.180115
0.076782 0.127289 0.209259
0.160309 0.121979 0.221069
0.313995 0.116364 0.226562
0.441254 0.104156 0.214111
0.564453 0.093140 0.202698
0.691803 0.085236 0.194824
0.794861 0.078796 0.188416
0.862305 0.074615 0.184235
0.077179 0.228577 0.197021
0.170624 0.242096 0.217010
0.312744 0.248047 0.225708
0.443695 0.239716 0.217407
0.571228 0.231812 0.209473
0.698547 0.223877 0.201538
0.801636 0.217499 0.195129
0.869049 0.213257 0.190918
0.076660 0.402130 0.193237
0.169189 0.420807 0.205505
0.333466 0.418335 0.242859
0.450958 0.420746 0.264526
0.598389 0.422913 0.229614
0.719849 0.405304 0.211395
0.814453 0.392303 0.200409
0.875641 0.384430 0.193848
0.075043 0.561523 0.181091
0.169189 0.569366 0.190582
0.351593 0.569366 0.231628
0.470459 0.561035 0.273407
0.582855 0.563049 0.284821
0.721130 0.579987 0.280823
0.842407 0.576843 0.243103
0.921600 0.568817 0.218750
0.074097 0.685364 0.169464
0.169189 0.685364 0.179016
0.363434 0.685364 0.230682
0.491852 0.677856 0.265778
0.596558 0.672058 0.298523
0.714569 0.678589 0.305054
0.822174 0.695038 0.318604
0.901001 0.699890 0.294403
0.074097 0.799774 0.158081
0.170868 0.799774 0.169189
0.374908 0.799774 0.230682
0.508575 0.794403 0.256866
0.619873 0.786682 0.297272
0.725159 0.783142 0.315613
0.821167 0.788971 0.321442
0.890930 0.799652 0.332153
0.074097 0.890991 0.148895
0.179932 0.890991 0.169189
0.384003 0.890991 0.230682
0.520355 0.887207 0.249939
0.636993 0.879028 0.290680
0.738739 0.871704 0.329193
0.828918 0.871704 0.329193
0.890930 0.874695 0.332153
0.062164 0.071655 0.358582
0.137146 0.061646 0.364258
0.316132 0.056152 0.405396
0.457611 0.056152 0.406647
0.589111 0.049957 0.401672
0.713470 0.037445 0.389496
0.812225 0.029083 0.379730
0.878235 0.022278 0.373352
0.079803 0.142700 0.361053
0.146545 0.125702 0.367462
0.311005 0.121338 0.401184
0.457611 0.120789 0.406616
0.586914 0.112732 0.399475
0.710602 0.100739 0.387207
0.810699 0.091125 0.377472
0.875366 0.085663 0.371399
0.079803 0.254639 0.361053
0.173248 0.260925 0.374084
0.305145 0.255005 0.392212
0.457611 0.253082 0.406616
0.582184 0.241302 0.395020
0.705627 0.229614 0.383148
0.805084 0.220612 0.373718
0.870392 0.214630 0.367676
0.080048 0.373291 0.336853
0.173523 0.386353 0.356628
0.319672 0.406738 0.387482
0.454956 0.418060 0.403839
0.582031 0.409851 0.395691
0.709381 0.401886 0.387756
0.812439 0.395447 0.381348
0.879852 0.391235 0.377136
0.081055 0.513306 0.334106
0.174225 0.532166 0.354767
0.318848 0.562714 0.381256
0.473389 0.568726 0.409851
0.588013 0.568237 0.434509
0.734192 0.569641 0.402008
0.830627 0.555328 0.389130
0.891266 0.547180 0.383179
0.080750 0.636780 0.332977
0.173004 0.656525 0.350311
0.317902 0.685364 0.369843
0.485504 0.685364 0.406616
0.604065 0.678497 0.441833
0.719727 0.683746 0.454742
0.834229 0.694458 0.440765
0.913666 0.691193 0.415955
0.079498 0.759583 0.327545
0.171570 0.779449 0.341949
0.317902 0.799774 0.358368
0.496948 0.799774 0.406616
0.624634 0.793976 0.434052
0.730225 0.788269 0.465271
0.826324 0.794159 0.471130
0.896057 0.804840 0.481812
0.078705 0.857208 0.321594
0.170563 0.877380 0.333984
0.317902 0.890991 0.349243
0.506073 0.890991 0.406616
0.637634 0.886414 0.427399
0.748077 0.879059 0.467285
0.834076 0.876831 0.478882
0.896057 0.879761 0.481812
0.064972 0.085968 0.499542
0.124390 0.064972 0.499542
0.282166 0.060852 0.534210
0.457550 0.056152 0.569946
0.593475 0.056152 0.570007
0.729156 0.056152 0.569946
0.831879 0.048645 0.562653
0.898010 0.041595 0.556366
0.082611 0.157043 0.501984
0.137787 0.128510 0.508423
0.281555 0.125641 0.530365
0.455872 0.120789 0.568726
0.593475 0.120789 0.569946
0.729156 0.120789 0.569946
0.829773 0.111206 0.560669
0.895782 0.104492 0.554413
0.082611 0.268951 0.501984
0.176086 0.275238 0.515045
0.291046 0.258514 0.526520
0.445679 0.254272 0.559937
0.593475 0.253082 0.569946
0.725922 0.248505 0.566254
0.825989 0.238892 0.556366
0.891510 0.232544 0.549957
0.082611 0.410767 0.501984
0.176086 0.417145 0.515045
0.322235 0.427002 0.535431
0.444000 0.423370 0.549530
0.593475 0.420807 0.569946
0.720276 0.411163 0.560669
0.820435 0.401489 0.550934
0.885254 0.395905 0.544891
0.082611 0.501984 0.467590
0.176086 0.515045 0.487335
0.322235 0.535431 0.518158
0.459534 0.554565 0.547150
0.592010 0.567963 0.568542
0.719360 0.560028 0.560608
0.822418 0.553589 0.554169
0.889862 0.549408 0.549988
0.084595 0.601593 0.460999
0.178070 0.614624 0.480652
0.323700 0.641907 0.514648
0.459717 0.670441 0.544189
0.605042 0.685364 0.569946
0.725250 0.688232 0.590729
0.837769 0.680206 0.561829
0.899689 0.671448 0.554596
0.085541 0.714264 0.461304
0.178131 0.733704 0.482788
0.322296 0.764740 0.513367
0.458252 0.793365 0.535553
0.616455 0.799774 0.569946
0.736450 0.793762 0.600586
0.831085 0.798859 0.610077
0.905304 0.807007 0.603455
0.084320 0.812347 0.461853
0.177032 0.831696 0.481506
0.322174 0.861755 0.508698
0.457611 0.890869 0.526581
0.625610 0.890991 0.569946
0.753510 0.886261 0.593903
0.838837 0.881592 0.617828
0.900818 0.884552 0.620789
0.067291 0.097809 0.615723
0.117249 0.067291 0.615723
0.262604 0.064240 0.640869
0.428375 0.059814 0.678772
0.593445 0.056152 0.704590
0.729156 0.056152 0.704498
0.838959 0.056152 0.704590
0.910797 0.056152 0.704651
0.084930 0.168762 0.618195
0.130829 0.130951 0.624603
0.265167 0.130005 0.636047
0.425110 0.125153 0.674377
0.593414 0.120789 0.704590
0.729156 0.120789 0.704651
0.838959 0.120789 0.704651
0.910797 0.120789 0.704620
0.084930 0.280731 0.618195
0.178375 0.287048 0.631226
0.283875 0.260834 0.642700
0.421967 0.257965 0.666321
0.592316 0.253082 0.703796
0.729156 0.253082 0.704620
0.838959 0.253082 0.704651
0.907104 0.249268 0.700897
0.084930 0.422516 0.618195
0.178375 0.428894 0.631226
0.324554 0.438812 0.651611
0.436829 0.425690 0.665710
0.579834 0.422394 0.692566
0.729156 0.420807 0.704620
0.836639 0.417572 0.701996
0.902710 0.410675 0.695618
0.084930 0.548279 0.618195
0.178375 0.554504 0.631226
0.324554 0.564484 0.651611
0.461853 0.573761 0.670776
0.582550 0.571686 0.686096
0.729156 0.569366 0.704590
0.831879 0.561401 0.697021
0.897247 0.555267 0.690704
0.084930 0.618195 0.590088
0.178375 0.631226 0.609772
0.324554 0.651611 0.640686
0.461853 0.670776 0.669647
0.595367 0.680939 0.689392
0.727661 0.683777 0.703033
0.829559 0.676392 0.695587
0.896973 0.672180 0.691345
0.086578 0.700348 0.568787
0.180023 0.713379 0.588501
0.326172 0.733734 0.619293
0.462952 0.756409 0.650024
0.595734 0.783661 0.679932
0.738617 0.799774 0.704865
0.836121 0.802460 0.720642
0.912018 0.797577 0.699432
0.088135 0.779053 0.563812
0.181641 0.794830 0.585083
0.325958 0.825684 0.620239
0.462311 0.853882 0.650360
0.594604 0.881653 0.674225
0.747833 0.890991 0.704590
0.843384 0.885834 0.730988
0.904755 0.888489 0.735352
0.069031 0.106659 0.703094
0.111908 0.069031 0.703094
0.250305 0.066711 0.721191
0.408997 0.063080 0.758331
0.581726 0.057587 0.796356
0.729156 0.056152 0.805847
0.838959 0.056152 0.805908
0.910797 0.056152 0.805847
0.086670 0.177643 0.705597
0.132568 0.139923 0.711975
0.253937 0.131470 0.717438
0.407745 0.127045 0.755310
0.576813 0.122101 0.792786
0.729065 0.120789 0.805847
0.838959 0.120789 0.805817
0.910797 0.120789 0.805878
0.086670 0.289612 0.705597
0.180115 0.295929 0.718597
0.278442 0.262573 0.730103
0.408875 0.260895 0.746155
0.567902 0.256195 0.783356
0.729187 0.253082 0.805847
0.838959 0.253082 0.805908
0.910797 0.253082 0.805786
0.086670 0.431488 0.705597
0.180115 0.437775 0.718597
0.326294 0.447693 0.738983
0.431488 0.427429 0.753113
0.562805 0.424988 0.772797
0.729126 0.420807 0.805847
0.838959 0.420807 0.805878
0.910797 0.420807 0.805878
0.086670 0.557068 0.705597
0.180115 0.563477 0.718597
0.326294 0.573334 0.738983
0.463593 0.582611 0.758148
0.577179 0.573425 0.773468
0.722260 0.570251 0.800079
0.838959 0.569366 0.805847
0.909393 0.567383 0.804260
0.086670 0.655273 0.705597
0.180115 0.661530 0.718597
0.326294 0.671478 0.738983
0.463593 0.680756 0.758148
0.597107 0.689789 0.776764
0.718445 0.687073 0.792664
0.838959 0.685364 0.805847
0.905914 0.679474 0.800476
0.086670 0.705597 0.659210
0.180115 0.718597 0.678894
0.326294 0.738983 0.709778
0.463593 0.758148 0.738739
0.597107 0.776764 0.766937
0.730469 0.795380 0.795105
0.836578 0.797485 0.803558
0.903992 0.793274 0.799316
0.088135 0.779053 0.649506
0.181580 0.792084 0.669281
0.327759 0.812469 0.700043
0.465057 0.831635 0.729065
0.598114 0.853821 0.759003
0.730347 0.881439 0.787903
0.846680 0.890167 0.809570
0.907715 0.891449 0.821503
0.070221 0.112671 0.763092
0.108124 0.070221 0.763092
0.242767 0.069031 0.775726
0.397675 0.063629 0.814606
0.565094 0.059265 0.851593
0.729156 0.056152 0.875366
0.838959 0.056152 0.875366
0.910797 0.056152 0.875336
0.087860 0.183838 0.765564
0.133759 0.145905 0.771973
0.247345 0.133759 0.771973
0.397247 0.128967 0.810211
0.560883 0.125061 0.846619
0.729095 0.120789 0.875366
0.838898 0.120789 0.875366
0.910797 0.120789 0.875305
0.087860 0.295685 0.765564
0.181335 0.302063 0.778595
0.274811 0.263763 0.790100
0.400818 0.262878 0.800964
0.554779 0.257690 0.838806
0.729218 0.253082 0.875366
0.838898 0.253082 0.875366
0.910797 0.253082 0.875305
0.087860 0.437469 0.765564
0.181335 0.443817 0.778595
0.327484 0.453766 0.798981
0.428619 0.429474 0.813080
0.553833 0.427246 0.827301
0.716339 0.422546 0.864624
0.838959 0.420807 0.875366
0.910797 0.420807 0.875397
0.087860 0.563202 0.765564
0.181335 0.569489 0.778595
0.327484 0.579468 0.798981
0.464783 0.588745 0.818115
0.574615 0.575745 0.833435
0.708557 0.572174 0.855011
0.838989 0.569366 0.875366
0.910797 0.569366 0.875366
0.087860 0.661316 0.765564
0.181335 0.667633 0.778595
0.327484 0.677551 0.798981
0.464783 0.686829 0.818115
0.598328 0.695892 0.836761
0.712280 0.688629 0.849365
0.838959 0.685364 0.875366
0.910797 0.685364 0.875366
0.087860 0.758118 0.765564
0.181335 0.764465 0.778595
0.327484 0.774353 0.798981
0.464783 0.783600 0.818115
0.598328 0.792694 0.836761
0.731659 0.801697 0.855347
0.833832 0.800476 0.870270
0.910248 0.798920 0.874725
0.088135 0.779053 0.708374
0.181580 0.792084 0.727997
0.327759 0.812469 0.758850
0.465057 0.831635 0.787872
0.598572 0.850220 0.816071
0.731934 0.868835 0.844238
0.839783 0.884674 0.867371
0.910797 0.890411 0.874359
