Demo/Harbeth-SwiftUI-Demo/Resources/vista200 v1.CUBE
#Created by: Adobe Photoshop Export Color Lookup Plugin
TITLE "vista200 v1.psd"
#LUT size
LUT_3D_SIZE 32
#data domain
DOMAIN_MIN 0.0 0.0 0.0
DOMAIN_MAX 1.0 1.0 1.0
#LUT data points
0.072693 0.054779 0.049622
0.089355 0.053741 0.048584
0.109070 0.052521 0.047363
0.133026 0.051025 0.045868
0.161957 0.049225 0.044067
0.195038 0.047180 0.042023
0.230377 0.044983 0.039825
0.266296 0.042694 0.037567
0.301544 0.040497 0.035370
0.335541 0.038422 0.033264
0.368561 0.036316 0.031219
0.400848 0.034363 0.029205
0.432678 0.032379 0.027222
0.464264 0.030396 0.025238
0.495941 0.028473 0.023285
0.527832 0.026489 0.021301
0.560181 0.024445 0.019287
0.592773 0.022430 0.017242
0.625214 0.020447 0.015228
0.656952 0.018433 0.013245
0.687531 0.016479 0.011353
0.716461 0.014740 0.009552
0.743469 0.013092 0.007874
0.768188 0.011536 0.006317
0.790588 0.010132 0.004944
0.810608 0.008820 0.003693
0.828369 0.007843 0.002594
0.844025 0.006744 0.001617
0.858002 0.005951 0.000732
0.870667 0.005096 0.000000
0.881927 0.005157 0.000000
0.892731 0.005219 0.000000
0.073425 0.069519 0.054443
0.091919 0.068787 0.049896
0.109985 0.066254 0.047821
0.133026 0.064178 0.045868
0.161957 0.062378 0.044067
0.195038 0.060333 0.042023
0.230377 0.058105 0.039825
0.266296 0.055878 0.037567
0.301544 0.053619 0.035370
0.335541 0.051575 0.033264
0.368561 0.049500 0.031219
0.400848 0.047546 0.029205
0.432678 0.045532 0.027222
0.464264 0.043579 0.025238
0.495941 0.041504 0.023285
0.527832 0.039612 0.021301
0.560181 0.037506 0.019287
0.592773 0.035522 0.017242
0.625214 0.033539 0.015228
0.656952 0.031464 0.013245
0.687531 0.029663 0.011353
0.716461 0.027832 0.009552
0.743469 0.026184 0.007874
0.768188 0.024536 0.006317
0.790588 0.023163 0.004944
0.810608 0.022003 0.003693
0.828369 0.020935 0.002594
0.844025 0.019928 0.001617
0.858002 0.018951 0.000732
0.870667 0.018280 0.000000
0.881927 0.018311 0.000000
0.892731 0.018311 0.000000
0.075012 0.082855 0.055511
0.090637 0.084015 0.057098
0.113556 0.084167 0.051086
0.136658 0.080933 0.047455
0.162964 0.077423 0.044586
0.195038 0.074707 0.042023
0.230377 0.072540 0.039825
0.266296 0.070221 0.037567
0.301544 0.068054 0.035370
0.335541 0.065948 0.033264
0.368561 0.063904 0.031219
0.400848 0.061859 0.029205
0.432678 0.059875 0.027222
0.464264 0.057922 0.025238
0.495941 0.055939 0.023285
0.527832 0.053955 0.021301
0.560181 0.051910 0.019287
0.592773 0.049988 0.017242
0.625214 0.047852 0.015228
0.656952 0.045929 0.013245
0.687531 0.044037 0.011353
0.716461 0.042175 0.009552
0.743469 0.040558 0.007874
0.768188 0.039062 0.006317
0.790588 0.037537 0.004944
0.810608 0.036407 0.003693
0.828369 0.035248 0.002594
0.844025 0.034332 0.001617
0.858002 0.033386 0.000732
0.870667 0.032745 0.000000
0.881927 0.032501 0.000000
0.892731 0.032471 0.000000
0.078094 0.099915 0.054260
0.091919 0.099091 0.058380
0.111053 0.100952 0.060211
0.138702 0.101776 0.053375
0.168335 0.098022 0.047211
0.198517 0.093811 0.043854
0.230957 0.089600 0.040100
0.266296 0.086975 0.037567
0.301544 0.084808 0.035370
0.335541 0.082703 0.033264
0.368561 0.080627 0.031219
0.400848 0.078644 0.029205
0.432678 0.076630 0.027222
0.464264 0.074646 0.025238
0.495941 0.072662 0.023285
0.527832 0.070770 0.021301
0.560181 0.068665 0.019287
0.592773 0.066711 0.017242
0.625214 0.064667 0.015228
0.656952 0.062592 0.013245
0.687531 0.060699 0.011353
0.716461 0.058899 0.009552
0.743469 0.057251 0.007874
0.768188 0.055786 0.006317
0.790588 0.054443 0.004944
0.810608 0.053131 0.003693
0.828369 0.052002 0.002594
0.844025 0.050964 0.001617
0.858002 0.050140 0.000732
0.870667 0.049316 0.000000
0.881927 0.049316 0.000000
0.892731 0.049255 0.000000
0.080811 0.120392 0.052826
0.095886 0.119293 0.058167
0.112213 0.118744 0.061401
0.135803 0.121368 0.064026
0.169189 0.122833 0.056000
0.204865 0.118896 0.047180
0.237366 0.114197 0.043304
0.270203 0.109772 0.039612
0.302643 0.105530 0.035736
0.335541 0.102844 0.033264
0.368561 0.100800 0.031219
0.400848 0.098785 0.029205
0.432678 0.096802 0.027222
0.464264 0.094788 0.025238
0.495941 0.092865 0.023285
0.527832 0.090912 0.021301
0.560181 0.088867 0.019287
0.592773 0.086792 0.017242
0.625214 0.084778 0.015228
0.656952 0.082855 0.013245
0.687531 0.081024 0.011353
0.716461 0.079102 0.009552
0.743469 0.077362 0.007874
0.768188 0.075897 0.006317
0.790588 0.074585 0.004944
0.810608 0.073242 0.003693
0.828369 0.072144 0.002594
0.844025 0.071136 0.001617
0.858002 0.070221 0.000732
0.870667 0.069519 0.000000
0.881927 0.069550 0.000000
0.892731 0.069305 0.000000
0.083588 0.145752 0.050995
0.099945 0.144684 0.056274
0.116852 0.143402 0.062561
0.136902 0.142975 0.065125
0.165741 0.146484 0.068634
0.203583 0.148773 0.060303
0.244934 0.145477 0.047638
0.278015 0.140503 0.043701
0.310425 0.135895 0.039825
0.341949 0.131531 0.035889
0.371918 0.127655 0.032654
0.401642 0.123810 0.029144
0.432678 0.121765 0.027222
0.464264 0.119781 0.025238
0.495941 0.117798 0.023285
0.527832 0.115784 0.021301
0.560181 0.113708 0.019287
0.592773 0.111664 0.017242
0.625214 0.109650 0.015228
0.656952 0.107697 0.013245
0.687531 0.105774 0.011353
0.716461 0.103943 0.009552
0.743469 0.102325 0.007874
0.768188 0.100800 0.006317
0.790588 0.099518 0.004944
0.810608 0.098267 0.003693
0.828369 0.097137 0.002594
0.844025 0.096008 0.001617
0.858002 0.095123 0.000732
0.870667 0.094391 0.000000
0.881927 0.094299 0.000000
0.892731 0.094147 0.000000
0.086700 0.176727 0.050995
0.103973 0.175995 0.054077
0.122437 0.174866 0.060242
0.142273 0.173431 0.067810
0.166840 0.173035 0.069733
0.199951 0.177185 0.073883
0.239685 0.180847 0.067627
0.282104 0.179169 0.054291
0.319672 0.174622 0.045349
0.351288 0.169922 0.041351
0.382019 0.165436 0.037354
0.411316 0.161438 0.034210
0.440582 0.157562 0.030792
0.469971 0.153595 0.027069
0.497864 0.150146 0.024689
0.527832 0.146698 0.021301
0.560181 0.144592 0.019287
0.592773 0.142578 0.017242
0.625214 0.140625 0.015228
0.656952 0.138641 0.013245
0.687531 0.136658 0.011353
0.716461 0.134857 0.009552
0.743469 0.133240 0.007874
0.768188 0.131683 0.006317
0.790588 0.130371 0.004944
0.810608 0.128998 0.003693
0.828369 0.127991 0.002594
0.844025 0.127075 0.001617
0.858002 0.126099 0.000732
0.870667 0.125427 0.000000
0.881927 0.125092 0.000000
0.892731 0.124878 0.000000
0.090302 0.212952 0.050995
0.108002 0.212952 0.051239
0.127686 0.211426 0.057800
0.149384 0.209991 0.065338
0.172638 0.208466 0.074249
0.201233 0.208221 0.075165
0.236511 0.212555 0.079498
0.275513 0.217499 0.078156
0.316895 0.217957 0.065308
0.357056 0.215302 0.052734
0.392151 0.210938 0.044464
0.423065 0.206299 0.039703
0.451935 0.202026 0.036652
0.480957 0.197968 0.033264
0.510254 0.193756 0.029602
0.539215 0.190002 0.026520
0.568726 0.186096 0.023224
0.598663 0.182129 0.019714
0.627625 0.178650 0.017059
0.657288 0.174896 0.013245
0.687531 0.172791 0.011353
0.716461 0.171082 0.009552
0.743469 0.169312 0.007874
0.768188 0.167755 0.006317
0.790588 0.166443 0.004944
0.810608 0.165222 0.003693
0.828369 0.164093 0.002594
0.844025 0.163055 0.001617
0.858002 0.162292 0.000732
0.870667 0.161560 0.000000
0.881927 0.161285 0.000000
0.892731 0.160858 0.000000
0.094299 0.253082 0.050995
0.112061 0.253082 0.050995
0.132568 0.252289 0.054657
0.155640 0.250824 0.062317
0.180969 0.248718 0.071747
0.207184 0.247162 0.081146
0.238129 0.247162 0.081146
0.273651 0.251251 0.085205
0.310089 0.256805 0.090790
0.349792 0.259521 0.079132
0.388672 0.259186 0.067017
0.426544 0.256622 0.055328
0.463867 0.252625 0.043854
0.493286 0.248077 0.040039
0.522339 0.243713 0.036713
0.551788 0.239380 0.033081
0.582001 0.235107 0.029114
0.611603 0.230927 0.025879
0.640289 0.227264 0.023560
0.670746 0.222900 0.018860
0.698029 0.219513 0.016296
0.725433 0.215790 0.012482
0.748627 0.213165 0.011169
0.771149 0.210236 0.008636
0.791809 0.207550 0.006134
0.810608 0.205231 0.003693
0.828369 0.204010 0.002594
0.844025 0.203156 0.001617
0.858002 0.202271 0.000732
0.870667 0.201508 0.000000
0.881927 0.201111 0.000000
0.892731 0.200745 0.000000
0.098541 0.295319 0.050995
0.116302 0.295319 0.050995
0.137299 0.295319 0.051422
0.161285 0.293457 0.059418
0.188232 0.291718 0.068512
0.216278 0.289673 0.079010
0.244476 0.288177 0.087463
0.275879 0.288177 0.087463
0.310089 0.291504 0.090790
0.345276 0.296936 0.096222
0.381012 0.301483 0.094727
0.418976 0.303223 0.082977
0.456085 0.302643 0.071655
0.493774 0.300537 0.059601
0.531464 0.296967 0.047607
0.563843 0.292542 0.041168
0.594727 0.287964 0.036530
0.624023 0.283569 0.033630
0.654633 0.279114 0.029388
0.683533 0.274872 0.026062
0.711914 0.270996 0.022583
0.739044 0.267181 0.018951
0.761902 0.264191 0.017883
0.785736 0.260956 0.014191
0.806183 0.258148 0.011841
0.824829 0.255737 0.009491
0.841400 0.253235 0.007233
0.854828 0.251709 0.006500
0.868500 0.249878 0.004303
0.879333 0.248688 0.003693
0.889648 0.247467 0.003113
0.899597 0.246521 0.002533
0.102844 0.337921 0.050995
0.120544 0.337921 0.050995
0.141571 0.337921 0.050995
0.166382 0.336823 0.056122
0.194458 0.334686 0.065643
0.224121 0.332703 0.076080
0.253296 0.330872 0.086975
0.282227 0.329529 0.093781
0.313080 0.329529 0.093781
0.345276 0.331970 0.096222
0.379425 0.337219 0.101471
0.412811 0.342316 0.106628
0.449005 0.345978 0.099060
0.485687 0.347107 0.087952
0.523254 0.346710 0.076050
0.560944 0.344727 0.064270
0.599731 0.341492 0.051666
0.637085 0.337219 0.040863
0.667358 0.332550 0.036865
0.696136 0.328094 0.033813
0.724152 0.324036 0.030579
0.750977 0.320190 0.027222
0.776337 0.316406 0.023712
0.800110 0.312988 0.020111
0.819092 0.310669 0.019348
0.837433 0.307953 0.017181
0.853912 0.305664 0.015045
0.868713 0.303528 0.012909
0.880676 0.302155 0.012360
0.892975 0.300354 0.010284
0.903259 0.299042 0.009796
0.914581 0.297302 0.007721
0.107025 0.379852 0.050995
0.124786 0.379852 0.050995
0.145721 0.379852 0.050995
0.171143 0.379211 0.053162
0.199982 0.377350 0.062439
0.230927 0.375580 0.072662
0.261719 0.373352 0.083923
0.290436 0.371246 0.095215
0.319305 0.370239 0.100067
0.349121 0.370239 0.100067
0.379425 0.371613 0.101471
0.412811 0.376770 0.106628
0.445709 0.381866 0.111664
0.479126 0.386810 0.114532
0.515778 0.389587 0.103577
0.553467 0.390564 0.091675
0.591461 0.390045 0.079956
0.629272 0.388062 0.068573
0.667480 0.385040 0.056671
0.706635 0.381073 0.043213
0.736847 0.376770 0.037842
0.764862 0.372650 0.033325
0.788788 0.369019 0.031342
0.812286 0.365540 0.027924
0.832367 0.362366 0.025879
0.850647 0.359741 0.023834
0.867096 0.357361 0.021790
0.881775 0.355225 0.019745
0.895294 0.353455 0.017731
0.907532 0.351440 0.015686
0.917694 0.350159 0.015289
0.927399 0.348846 0.014893
0.111115 0.420807 0.050995
0.128815 0.420807 0.050995
0.149872 0.420807 0.050995
0.175415 0.420807 0.050995
0.205048 0.418671 0.059631
0.236877 0.416626 0.070129
0.268860 0.414734 0.081116
0.298981 0.412262 0.092712
0.326569 0.410553 0.103424
0.355255 0.410004 0.106171
0.384125 0.410004 0.106171
0.412811 0.410431 0.106628
0.445709 0.415466 0.111664
0.478394 0.420471 0.116669
0.511169 0.425507 0.121735
0.546631 0.430084 0.118073
0.584747 0.432373 0.106110
0.622925 0.432983 0.094360
0.660492 0.432129 0.083130
0.697815 0.430237 0.071533
0.734344 0.427734 0.059875
0.769562 0.424469 0.048035
0.801575 0.420746 0.038025
0.823425 0.417114 0.036194
0.844971 0.413910 0.032806
0.863129 0.411255 0.030884
0.879547 0.408752 0.028931
0.894135 0.406555 0.026978
0.907471 0.404633 0.025024
0.918030 0.402893 0.024719
0.929688 0.401154 0.022736
0.941040 0.399567 0.020752
0.115082 0.460480 0.050995
0.132782 0.460480 0.050995
0.153870 0.460480 0.050995
0.179352 0.460480 0.050995
0.209412 0.459686 0.055939
0.242096 0.457367 0.066711
0.275146 0.455170 0.077972
0.306458 0.452332 0.089966
0.335297 0.450378 0.100983
0.361298 0.448486 0.111542
0.390045 0.448517 0.112091
0.418304 0.448517 0.112091
0.446136 0.448517 0.112091
0.478394 0.453125 0.116669
0.511169 0.458130 0.121735
0.544159 0.463257 0.126801
0.577606 0.468353 0.131927
0.614990 0.471558 0.121277
0.653992 0.473694 0.108612
0.690674 0.473785 0.097626
0.726624 0.472931 0.086365
0.761292 0.471497 0.075195
0.792969 0.469177 0.065430
0.822449 0.466766 0.056061
0.849640 0.464233 0.047058
0.872894 0.461304 0.039948
0.890808 0.458832 0.036469
0.905396 0.456604 0.034607
0.918701 0.454742 0.032745
0.930756 0.452698 0.030853
0.942474 0.451111 0.028900
0.951996 0.449554 0.028687
0.118866 0.498627 0.050995
0.136688 0.498627 0.050995
0.157654 0.498627 0.050995
0.183105 0.498627 0.050995
0.213867 0.497742 0.053772
0.246979 0.496063 0.063934
0.280731 0.493591 0.075439
0.312988 0.491241 0.086975
0.342926 0.489014 0.098206
0.370087 0.486847 0.109070
0.395752 0.485535 0.117767
0.423950 0.485535 0.117767
0.451874 0.485535 0.117767
0.479523 0.485535 0.117767
0.511169 0.489502 0.121735
0.544159 0.494537 0.126801
0.577606 0.499695 0.131927
0.611328 0.504822 0.137115
0.647888 0.509674 0.132812
0.683990 0.511810 0.122467
0.719360 0.512909 0.111877
0.753479 0.513000 0.101196
0.786011 0.512482 0.090546
0.815125 0.511169 0.081482
0.841919 0.509796 0.072906
0.864899 0.508026 0.066101
0.885559 0.506195 0.059906
0.905670 0.504486 0.052460
0.922455 0.502686 0.046997
0.936218 0.501007 0.043579
0.950958 0.499451 0.038574
0.963654 0.497864 0.035217
0.122589 0.534973 0.050995
0.140320 0.534973 0.050995
0.161346 0.534973 0.050995
0.186768 0.534973 0.050995
0.217590 0.534973 0.050995
0.251251 0.533112 0.061127
0.285645 0.530396 0.072845
0.318756 0.527832 0.084595
0.349670 0.526215 0.095245
0.377869 0.523804 0.106354
0.403870 0.522339 0.116272
0.429382 0.520813 0.123199
0.457245 0.520813 0.123199
0.484894 0.520813 0.123199
0.512665 0.520813 0.123199
0.544159 0.524384 0.126801
0.577606 0.529510 0.131927
0.611328 0.534698 0.137115
0.644897 0.539856 0.142273
0.677673 0.544617 0.146027
0.713654 0.547913 0.134857
0.747314 0.549683 0.124634
0.779388 0.550659 0.114471
0.808136 0.550598 0.105835
0.834595 0.550293 0.097595
0.858765 0.549683 0.089630
0.879211 0.548584 0.083557
0.897491 0.547302 0.077850
0.914062 0.546417 0.072815
0.929321 0.545227 0.067749
0.943909 0.544067 0.062927
0.956299 0.542877 0.059875
0.126038 0.569366 0.050995
0.143768 0.569366 0.050995
0.164764 0.569366 0.050995
0.190216 0.569366 0.050995
0.221100 0.569366 0.050995
0.255310 0.567352 0.059174
0.290253 0.565430 0.070190
0.323883 0.562592 0.082153
0.355560 0.560822 0.092987
0.384308 0.558197 0.104279
0.411255 0.556580 0.114349
0.436249 0.554993 0.124176
0.462402 0.554199 0.128326
0.490051 0.554199 0.128326
0.517822 0.554199 0.128326
0.545685 0.554199 0.128326
0.577606 0.557800 0.131927
0.611328 0.562927 0.137115
0.644897 0.568207 0.142273
0.677734 0.573242 0.147308
0.709320 0.578064 0.152191
0.742706 0.582214 0.145630
0.773102 0.583984 0.137146
0.802826 0.585693 0.127563
0.828979 0.586334 0.119537
0.852905 0.586578 0.111816
0.873108 0.586243 0.106110
0.891205 0.585663 0.100647
0.907593 0.585022 0.095551
0.922699 0.584534 0.090790
0.937134 0.583893 0.086029
0.951080 0.583069 0.081299
0.129242 0.601593 0.050995
0.146973 0.601593 0.050995
0.167938 0.601593 0.050995
0.193481 0.601593 0.050995
0.224274 0.601593 0.050995
0.258820 0.600525 0.056366
0.294220 0.598450 0.067505
0.328491 0.595398 0.079712
0.360718 0.593475 0.090637
0.390350 0.591614 0.101196
0.418030 0.589813 0.111481
0.443481 0.587128 0.122375
0.467590 0.585449 0.132172
0.494843 0.585510 0.133148
0.522552 0.585510 0.133148
0.550507 0.585510 0.133148
0.578888 0.585510 0.133148
0.611328 0.589447 0.137115
0.644897 0.594574 0.142273
0.677734 0.599640 0.147308
0.709320 0.604584 0.152191
0.739258 0.609131 0.156799
0.768372 0.613342 0.157257
0.796387 0.615448 0.149170
0.823608 0.617676 0.140106
0.847260 0.618927 0.132751
0.867279 0.619202 0.127228
0.885162 0.619263 0.121948
0.902954 0.619781 0.115509
0.916321 0.619171 0.112396
0.930603 0.619080 0.107941
0.944397 0.618774 0.103455
0.132202 0.631500 0.050995
0.149933 0.631500 0.050995
0.170898 0.631500 0.050995
0.196411 0.631500 0.050995
0.227295 0.631500 0.050995
0.262421 0.630371 0.054688
0.297882 0.628174 0.065857
0.332611 0.626038 0.077209
0.365265 0.623962 0.088257
0.395599 0.621979 0.098999
0.423645 0.620026 0.109344
0.450043 0.618164 0.119537
0.474884 0.616333 0.129486
0.499390 0.614532 0.137634
0.527100 0.614532 0.137634
0.555023 0.614532 0.137634
0.583344 0.614532 0.137634
0.611847 0.614532 0.137634
0.644897 0.619263 0.142273
0.677734 0.624237 0.147308
0.709320 0.629059 0.152191
0.739258 0.633759 0.156799
0.767181 0.638000 0.161072
0.792786 0.641968 0.165009
0.818451 0.645081 0.159698
0.840424 0.646301 0.153839
0.863098 0.648499 0.145569
0.879333 0.648560 0.141998
0.896912 0.649597 0.135803
0.911743 0.650146 0.131378
0.925903 0.650238 0.126801
0.939575 0.650543 0.122528
0.135010 0.659058 0.050995
0.152679 0.659058 0.050995
0.173767 0.659058 0.050995
0.199310 0.659058 0.050995
0.230042 0.659058 0.050995
0.265198 0.659058 0.051880
0.301025 0.656708 0.063263
0.336273 0.653290 0.075897
0.369385 0.651123 0.087067
0.399933 0.649017 0.097839
0.428772 0.648071 0.107269
0.455627 0.646057 0.117584
0.480927 0.644104 0.127594
0.505219 0.642242 0.137573
0.531158 0.641296 0.141724
0.559082 0.641296 0.141724
0.587402 0.641296 0.141724
0.615936 0.641296 0.141724
0.644897 0.641815 0.142273
0.677734 0.646912 0.147308
0.709320 0.651794 0.152191
0.739258 0.656342 0.156799
0.767181 0.660645 0.161072
0.792786 0.664490 0.165009
0.815918 0.668152 0.168549
0.836609 0.671143 0.170807
0.857635 0.673248 0.164154
0.875183 0.674530 0.159241
0.892609 0.676208 0.153320
0.907318 0.676971 0.148926
0.919769 0.677063 0.146149
0.934906 0.678070 0.140350
0.137573 0.685364 0.050995
0.155396 0.685364 0.050995
0.176300 0.685364 0.050995
0.201843 0.685364 0.050995
0.232666 0.685364 0.050995
0.267975 0.685364 0.050995
0.304321 0.682922 0.061890
0.339600 0.680542 0.073395
0.373077 0.678223 0.084747
0.404083 0.675995 0.095642
0.433014 0.673828 0.106293
0.460449 0.671722 0.116669
0.486450 0.670776 0.125671
0.511322 0.668762 0.135803
0.535126 0.666809 0.145630
0.562988 0.666809 0.145630
0.591370 0.666809 0.145630
0.619843 0.666809 0.145630
0.648224 0.666809 0.145630
0.677734 0.668549 0.147308
0.709320 0.673279 0.152191
0.739258 0.677979 0.156799
0.767181 0.682251 0.161072
0.792786 0.686127 0.165009
0.815918 0.689789 0.168549
0.836639 0.692993 0.171753
0.855011 0.695709 0.174591
0.871155 0.697815 0.175751
0.888428 0.700043 0.170013
0.903015 0.701233 0.165710
0.916931 0.702271 0.161530
0.930389 0.703186 0.157410
0.140259 0.712219 0.050995
0.158020 0.712219 0.050995
0.179016 0.712219 0.050995
0.204529 0.712219 0.050995
0.235352 0.712219 0.050995
0.270691 0.712219 0.050995
0.307159 0.710938 0.059052
0.343079 0.708435 0.070831
0.376740 0.705994 0.082214
0.408325 0.703644 0.093323
0.437653 0.701324 0.104004
0.465485 0.699097 0.114563
0.492096 0.698090 0.123718
0.517151 0.695953 0.133850
0.541382 0.693878 0.144043
0.567047 0.692902 0.149658
0.595276 0.692902 0.149658
0.623932 0.692902 0.149658
0.652313 0.692902 0.149658
0.680023 0.692902 0.149658
0.709320 0.695435 0.152191
0.739258 0.700012 0.156799
0.767181 0.704285 0.161072
0.792786 0.708191 0.165009
0.815918 0.711761 0.168549
0.836639 0.715057 0.171753
0.855011 0.717804 0.174591
0.871216 0.720398 0.177063
0.885681 0.722534 0.179291
0.898834 0.724518 0.181305
0.912659 0.726257 0.178558
0.926025 0.727722 0.174622
0.143127 0.740845 0.050995
0.160797 0.740845 0.050995
0.181854 0.740845 0.050995
0.207458 0.740845 0.050995
0.238281 0.740845 0.050995
0.273468 0.740845 0.050995
0.310394 0.739502 0.057465
0.346497 0.736877 0.069244
0.380768 0.734314 0.080811
0.412384 0.731842 0.091980
0.442261 0.730682 0.101624
0.470520 0.728302 0.112274
0.497101 0.726013 0.122681
0.523102 0.724976 0.131775
0.548004 0.722778 0.142151
0.571930 0.720642 0.152374
0.599609 0.720673 0.153900
0.628113 0.720673 0.153900
0.656464 0.720673 0.153900
0.684296 0.720673 0.153900
0.711121 0.720673 0.153900
0.739258 0.723480 0.156799
0.767181 0.727814 0.161072
0.792786 0.731781 0.165009
0.815918 0.735321 0.168549
0.836639 0.738434 0.171753
0.855011 0.741394 0.174591
0.871216 0.743774 0.177063
0.885681 0.746002 0.179291
0.898834 0.748016 0.181305
0.911224 0.750000 0.183197
0.923157 0.751801 0.185059
0.146210 0.770569 0.050995
0.163788 0.770569 0.050995
0.184875 0.770569 0.050995
0.210327 0.770569 0.050995
0.241241 0.770569 0.050995
0.276398 0.770569 0.050995
0.313873 0.769165 0.055725
0.350189 0.766418 0.067688
0.384491 0.765106 0.078033
0.416718 0.762482 0.089355
0.446869 0.759918 0.100342
0.475616 0.758728 0.109802
0.502777 0.756287 0.120422
0.529114 0.755188 0.129517
0.554291 0.752838 0.139954
0.578979 0.750549 0.150391
0.604065 0.749542 0.158356
0.632629 0.749542 0.158356
0.660919 0.749542 0.158356
0.688782 0.749542 0.158356
0.715485 0.749542 0.158356
0.740875 0.749542 0.158356
0.767181 0.752228 0.161072
0.792786 0.756165 0.165009
0.815918 0.759644 0.168549
0.836639 0.762939 0.171753
0.855011 0.765808 0.174591
0.871216 0.768188 0.177063
0.885681 0.770477 0.179291
0.898834 0.772522 0.181305
0.911224 0.774353 0.183197
0.923157 0.776306 0.185059
0.148987 0.799774 0.050995
0.166718 0.799774 0.050995
0.187744 0.799774 0.050995
0.213318 0.799774 0.050995
0.244232 0.799774 0.050995
0.279327 0.799774 0.050995
0.316772 0.799774 0.052643
0.353577 0.796875 0.064728
0.388153 0.794067 0.076508
0.420654 0.792725 0.086517
0.451324 0.790039 0.097748
0.480469 0.788788 0.107239
0.508026 0.786194 0.117950
0.534302 0.783661 0.128540
0.560577 0.782532 0.137787
0.585480 0.780121 0.148346
0.610504 0.779053 0.157684
0.636871 0.777893 0.162720
0.665405 0.777893 0.162720
0.693176 0.777893 0.162720
0.719910 0.777893 0.162720
0.745148 0.777893 0.162720
0.768890 0.777893 0.162720
0.792786 0.780212 0.165009
0.815918 0.783661 0.168549
0.836639 0.786957 0.171753
0.855011 0.789734 0.174591
0.871216 0.792236 0.177063
0.885681 0.794464 0.179291
0.898834 0.796539 0.181305
0.911224 0.798370 0.183197
0.923157 0.800262 0.185059
0.151794 0.827118 0.050995
0.169434 0.827118 0.050995
0.190460 0.827118 0.050995
0.216034 0.827118 0.050995
0.246918 0.827118 0.050995
0.282166 0.827118 0.050995
0.319946 0.827118 0.051086
0.356750 0.824127 0.063263
0.391693 0.822662 0.073700
0.424347 0.819794 0.085205
0.455139 0.816986 0.096466
0.484619 0.815674 0.106110
0.512695 0.814362 0.115448
0.539612 0.811737 0.126251
0.566132 0.810516 0.135529
0.591492 0.807983 0.146210
0.616882 0.806854 0.155670
0.641144 0.804413 0.166321
0.669464 0.804443 0.166809
0.697174 0.804443 0.166809
0.723969 0.804443 0.166809
0.749329 0.804443 0.166809
0.773010 0.804443 0.166809
0.794647 0.804443 0.166809
0.815918 0.806122 0.168549
0.836639 0.809357 0.171753
0.855011 0.812164 0.174591
0.871216 0.814789 0.177063
0.885681 0.816864 0.179291
0.898834 0.818939 0.181305
0.911224 0.820740 0.183197
0.923157 0.822601 0.185059
0.154205 0.851654 0.050995
0.171997 0.851654 0.050995
0.192902 0.851654 0.050995
0.218506 0.851654 0.050995
0.249390 0.851654 0.050995
0.284576 0.851654 0.050995
0.322327 0.851654 0.050995
0.359131 0.850098 0.060242
0.394653 0.847046 0.072388
0.427704 0.844086 0.084076
0.458771 0.842651 0.093872
0.488464 0.841278 0.103607
0.516602 0.838470 0.114502
0.544067 0.837158 0.123840
0.570496 0.834442 0.134674
0.596832 0.833221 0.144104
0.621948 0.830627 0.154907
0.647125 0.829468 0.164429
0.673096 0.828247 0.170441
0.700897 0.828247 0.170441
0.727539 0.828247 0.170441
0.752930 0.828247 0.170441
0.776520 0.828247 0.170441
0.798218 0.828247 0.170441
0.817810 0.828247 0.170441
0.836639 0.829498 0.171753
0.855011 0.832428 0.174591
0.871216 0.834778 0.177063
0.885681 0.837036 0.179291
0.898834 0.839111 0.181305
0.911224 0.841003 0.183197
0.923157 0.842773 0.185059
0.156342 0.872894 0.050995
0.174011 0.872894 0.050995
0.195068 0.872894 0.050995
0.220551 0.872894 0.050995
0.251465 0.872894 0.050995
0.286774 0.872894 0.050995
0.324280 0.872894 0.050995
0.361694 0.871307 0.059113
0.397369 0.868164 0.071289
0.430573 0.866669 0.081512
0.461731 0.863647 0.092957
0.491486 0.862213 0.102600
0.520050 0.860809 0.112000
0.547729 0.857941 0.123016
0.574615 0.856628 0.132446
0.600830 0.853882 0.143433
0.626648 0.852661 0.152893
0.651855 0.850006 0.163940
